svg/u1fa72.svg

<svg viewBox="0 0 128 128" xmlns="http://www.w3.org/2000/svg">
  <g>
    <path d="M123.6,65.54l-3.01-25.19l-0.16-3.41c-0.09-2.66-2.18-4.77-4.71-4.77H64.2l-0.04,0.02v-0.02H12.64 c-2.54,0-4.62,2.11-4.71,4.77l-0.15,3.03L4.4,65.74c-0.2,1.48,1.01,2.31,2.28,3.11c22.04,13.8,35.7,30.69,40.19,36.76 c0.98,1.32,4.26,1.35,4.26,1.35s7.56,0.19,12.88,0.19c5.26,0,12.48-0.22,12.48-0.22s3.28-0.03,4.26-1.36 c5.02-6.78,20.82-26.64,40.59-36.92C122.65,67.95,123.8,67.02,123.6,65.54z" fill="#0288D1"/>
    <path d="M4.2,66.94c0,0,3.07,5.43,18.5,20.58C35.09,99.68,48,106.41,48,106.41s-7.55-13.88-19.45-23.79 S4.2,66.94,4.2,66.94z" fill="#143C7C"/>
    <path d="M123.95,66.94c0,0-3.86,5.62-19.3,20.77c-12.39,12.16-24.51,18.69-24.51,18.69 s7.55-13.88,19.45-23.79S123.95,66.94,123.95,66.94z" fill="#143C7C"/>
    <path d="M123.99,65.15c-0.31-1.68-0.64-2.27-0.64-2.27l-1.11,0.37c-0.24,0.11-3.14,1.35-7.34,3.69 l-3.05-23.5c6.25-0.21,8.96-0.33,9.07-0.33l-0.39-4.04c-0.33,0.01-31.44,1.3-58.56,1.3c-27.09,0-53.86-1.58-54.13-1.6l-0.42,3.99 c0.1,0.01,3.02,0.23,8.7,0.49L13.1,66.87c-4.13-2.29-6.96-3.5-7.2-3.61l-1.11-0.37c0,0-0.33,0.59-0.64,2.27 c-0.18,0.96,0,1.77,0,1.77s17.32,9.46,24.4,15.7c7.08,6.23,18.49,22.07,19.36,23.63c0,0,0.18,0.32,1.24,0.56 c1.06,0.24,3.73,0.18,3.73,0.18l-1.32-2.52c-0.32-0.59-7.72-13.73-20.41-24.97c-3.56-3.15-7.2-5.84-10.58-8.09l3.72-27.8 c10.35,0.41,24.07,0.82,37.68,0.82c14.2,0,29.88-0.37,41.68-0.72l3.78,27.8c-3.34,2.22-6.93,4.89-10.44,7.99 c-12.7,11.24-20.09,24.37-20.41,24.97l-1.32,2.52c0,0,2.67,0.06,3.73-0.18c1.06-0.24,1.24-0.56,1.24-0.56 c0.87-1.56,12.28-17.4,19.36-23.63c7.08-6.23,24.4-15.7,24.4-15.7S124.17,66.11,123.99,65.15z" fill="#4FC3F7"/>
    <path d="M7.15,44.78c3.97,0.24,29.82,1.75,54.97,1.75c24.57,0,52.87-0.54,59.05-1.39l-0.24-2.02 c-5.91,0.23-34.48,1.38-58.81,1.38c-24.81,0-50.31-1.47-54.7-1.74L7.15,44.78z" opacity="0.6" fill="#0D47A1"/>
    <g opacity="0.6">
      <g opacity="0.6">
        <path d="M99.99,76.97c8.98-7.15,19.34-12.34,23.28-14.2l-0.25-2.12c-3.46,1.6-14.65,7.05-24.29,14.73 C84.9,86.4,74.86,103.17,72.66,107.02c0.93-0.02,1.74-0.04,2.38-0.06C78.07,101.82,87.46,86.95,99.99,76.97z" fill="#0D47A1"/>
      </g>
      <path d="M29.12,75.38C19.17,67.46,8,62.01,5.07,60.64l-0.28,2.11c3.55,1.69,13.85,6.87,23.06,14.21 c12.9,10.27,22.36,25.42,25.08,30.03c0.66,0.01,1.47,0.03,2.37,0.05C53.77,104.35,43.58,86.9,29.12,75.38z" fill="#0D47A1"/>
    </g>
  </g>
</svg>

<svg viewBox="0 0 128 128" xmlns="http://www.w3.org/2000/svg">
  <defs/>
  <path d="M123.6,65.54 L120.59,40.35 L120.43,36.94 C120.34,34.28 118.25,32.17 115.72,32.17 L64.2,32.17 L64.16,32.19 L64.16,32.17 L12.64,32.17 C10.1,32.17 8.02,34.28 7.93,36.94 L7.78,39.97 L4.4,65.74 C4.2,67.22 5.41,68.05 6.68,68.85 C28.72,82.65 42.38,99.54 46.87,105.61 C47.85,106.93 51.13,106.96 51.13,106.96 C51.13,106.96 58.69,107.15 64.01,107.15 C69.27,107.15 76.49,106.93 76.49,106.93 C76.49,106.93 79.77,106.9 80.75,105.57 C85.77,98.79 101.57,78.93 121.34,68.65 C122.65,67.95 123.8,67.02 123.6,65.54 Z" fill="#0288D1"/>
  <path d="M4.2,66.94 C4.2,66.94 7.27,72.37 22.7,87.52 C35.09,99.68 48,106.41 48,106.41 C48,106.41 40.45,92.53 28.55,82.62 C16.65,72.71 4.2,66.94 4.2,66.94 Z" fill="#143C7C"/>
  <path d="M123.95,66.94 C123.95,66.94 120.09,72.56 104.65,87.71 C92.26,99.87 80.14,106.4 80.14,106.4 C80.14,106.4 87.69,92.52 99.59,82.61 C111.49,72.7 123.95,66.94 123.95,66.94 Z" fill="#143C7C"/>
  <path d="M123.99,65.15 C123.68,63.47 123.35,62.88 123.35,62.88 L122.24,63.25 C122,63.36 119.1,64.6 114.9,66.94 L111.85,43.44 C118.1,43.23 120.81,43.11 120.92,43.11 L120.53,39.07 C120.2,39.08 89.09,40.37 61.97,40.37 C34.88,40.37 8.11,38.79 7.84,38.77 L7.42,42.76 C7.52,42.77 10.44,42.99 16.12,43.25 L13.1,66.87 C8.97,64.58 6.14,63.37 5.9,63.26 L4.79,62.89 C4.79,62.89 4.46,63.48 4.15,65.16 C3.97,66.12 4.15,66.93 4.15,66.93 C4.15,66.93 21.47,76.39 28.55,82.63 C35.63,88.86 47.04,104.7 47.91,106.26 C47.91,106.26 48.09,106.58 49.15,106.82 C50.21,107.06 52.88,107 52.88,107 L51.56,104.48 C51.24,103.89 43.84,90.75 31.15,79.51 C27.59,76.36 23.95,73.67 20.57,71.42 L24.29,43.62 C34.64,44.03 48.36,44.44 61.97,44.44 C76.17,44.44 91.85,44.07 103.65,43.72 L107.43,71.52 C104.09,73.74 100.5,76.41 96.99,79.51 C84.29,90.75 76.9,103.88 76.58,104.48 L75.26,107 C75.26,107 77.93,107.06 78.99,106.82 C80.05,106.58 80.23,106.26 80.23,106.26 C81.1,104.7 92.51,88.86 99.59,82.63 C106.67,76.4 123.99,66.93 123.99,66.93 C123.99,66.93 124.17,66.11 123.99,65.15 Z" fill="#4FC3F7"/>
  <path d="M7.15,44.78 C11.12,45.02 36.97,46.53 62.12,46.53 C86.69,46.53 114.99,45.99 121.17,45.14 L120.93,43.12 C115.02,43.35 86.45,44.5 62.12,44.5 C37.31,44.5 11.81,43.03 7.42,42.76 L7.15,44.78 Z" fill="#0D47A1" opacity="0.6"/>
  <g opacity="0.6">
    <path d="M99.99,76.97 C108.97,69.82 119.33,64.63 123.27,62.77 L123.02,60.65 C119.56,62.25 108.37,67.7 98.73,75.38 C84.9,86.4 74.86,103.17 72.66,107.02 C73.59,107 74.4,106.98 75.04,106.96 C78.07,101.82 87.46,86.95 99.99,76.97 Z" fill="#0D47A1" opacity="0.6"/>
    <path d="M29.12,75.38 C19.17,67.46 8,62.01 5.07,60.64 L4.79,62.75 C8.34,64.44 18.64,69.62 27.85,76.96 C40.75,87.23 50.21,102.38 52.93,106.99 C53.59,107 54.4,107.02 55.3,107.04 C53.77,104.35 43.58,86.9 29.12,75.38 Z" fill="#0D47A1"/>
  </g>
</svg>
